!!!COM: Claude Goudimel
!!!OMD: Psalm 21: Seigneur, le Roy s'esjouira
**kern	**kern	**kern	**kern
*part4	*part3	*part2	*part1
*staff4	*staff3	*staff2	*staff1
*I"bassus	*I"tenor	*I"contra	*I"superius
*clefF4	*clefC4	*clefC3	*clefC1
!!LO:TX:omd:t=
*M2/2	*M2/2	*M2/2	*M2/2
*met(c|)	*met(c|)	*met(c|)	*met(c|)
=1	=1	=1	=1
1GG	1G	1B	1d
=2	=2	=2	=2
2C	2G	2c	2e
2D	2F	2A	2d
=3	=3	=3	=3
1AA	1E	1A	1c#X
=4	=4	=4	=4
1FF	1A	1c	1f
=5	=5	=5	=5
2C	2G	2c	2e
2D	2F	2A	2d
=6	=6	=6	=6
1AA	1E	1A	1c#X
=7	=7	=7	=7
1r	1r	1r	1r
=8	=8	=8	=8
1AA	1C	1E	1A
=9	=9	=9	=9
2AA	2E	2A	2c
2D	2F	2A	2d
=10	=10	=10	=10
2C	2G	2c	2e
2E	2G	2B	[2g
=11	=11	=11	=11
1D	1A	1d	2g]
.	.	.	2f#X
=12	=12	=12	=12
1GG	1G	1d	1g
=13	=13	=13	=13
1r	1r	1r	1r
=14	=14	=14	=14
1C	1G	1c	1e
=15	=15	=15	=15
2C	2E	2G	2c
2C	2E	2G	2G
=16	=16	=16	=16
2AA	2C	2A	2c
2C	2E	2G	[2c
=17	=17	=17	=17
1GG	1D	1G	2c]
.	.	.	2B
=18	=18	=18	=18
1C	1C	1E	1c
=19	=19	=19	=19
1r	1r	1r	1r
=20	=20	=20	=20
1C	1G	1c	1e
=21	=21	=21	=21
2F	2A	2c	2f
2D	2A	2d	2f
=22	=22	=22	=22
1G	1B	1d	1g
=23	=23	=23	=23
1C	1G	1c	1e
=24	=24	=24	=24
2AA	2A	2c	2f
2GG	2B	2d	2g
=25	=25	=25	=25
1C	1c	1e	1g
=26	=26	=26	=26
1r	1r	1r	1r
=27	=27	=27	=27
1C	1G	1c	1e
=28	=28	=28	=28
2F	2A	2c	2f
2F	2A	2c	2f
=29	=29	=29	=29
1C	1G	1c	1e
=30	=30	=30	=30
1D	1F	1A	1d
=31	=31	=31	=31
1AA	1E	1A	1c
=32	=32	=32	=32
1r	1r	1r	1r
=33	=33	=33	=33
1AA	1C	1E	1A
=34	=34	=34	=34
2GG	2D	2G	2B
2FF	2F	2A	[2d
=35	=35	=35	=35
1C	1E	1G	2d]
.	.	.	[2c
=36	=36	=36	=36
1GG	1D	1G	2c]
.	.	.	2B
=37	=37	=37	=37
1C;	1C;	1G;	1c;
==	==	==	==
*-	*-	*-	*-
!!!software: music21 v.9.7.1
!!!software: music21 v.9.1.0
!!!RDF**kern: > = above
!!!RDF**kern: < = below
